X: 666
P: Longways for as many as will
M: 6/4
L: 1/4
K: C
|: c |\
e/f/gg g>ag | gcg g2e | f/g/aa a>_ba | ada a2f |\
e/f/gg g>ag | gcg g2e | a>gf edg | e3 c2 :|

